X: 18
T:Paddy Fahey's
M:C|
L:1/8
Q:200
S:THSP
C:Paddy Fahey
R:reel
Z:
K:Ddor
"Dm"DA,DE FEFG|Add^c d2de|fedf edcA|"C"dcAG FDEC|
"Dm"DA,DE FEFG|Add^c d2de|f2gf edcA|"C"dcAG "Dm"FDD2:|:
"Dm"Ad~d2 fded|"C"c2Gc EcGc|"Dm"Ad~d2 fded|"C"cBcd "A"ed^cd|
"Dm"a2^ga ABcA|"C"dcAG FDEC|"Dm"DA,DE FEFG|"C"Add^c "Dm"d4:||
